img/logo-mob.svg

<svg width="65" height="65" viewBox="0 0 65 65" fill="none" xmlns="http://www.w3.org/2000/svg">
<path fill-rule="evenodd" clip-rule="evenodd" d="M0 0H65V65H0V0Z" fill="#252323"/>
<path d="M29.7033 11.9053H30.4443V28.7351H29.3809V11.9053H29.7033Z" fill="#EC268F"/>
<path d="M8.94336 28.4101V11.9053H10.2278L17.1048 27.1205L23.9012 11.9053H25.1856V28.7351H24.1222V13.9671L17.4844 28.6493H17.1308L17.11 28.6987L17.0866 28.6493H16.6472L10.0068 13.9671V28.7351H8.94336V28.4101Z" fill="#00AFEF"/>
<path d="M36.9824 9.52638V8.79578H45.1958V9.85138H36.9824V9.52638Z" fill="#FFF212"/>
<path d="M29.3535 9.58357V8.79578H30.4663V9.90597H29.3535V9.58357Z" fill="#EC268F"/>
<path d="M44.3898 39.8164L45.0034 40.1206L38.7842 53.7524C38.4046 54.574 37.9808 55.1876 37.5154 55.5932C37.024 56.0222 36.491 56.2224 35.9138 56.1964C35.6018 56.225 35.2794 56.1912 34.944 56.1028C34.6138 56.0118 34.268 55.861 33.9066 55.653L33.644 55.4996L34.0886 54.613L34.372 54.7456C34.7152 54.9042 35.0168 55.016 35.2742 55.081C35.5108 55.1382 35.7058 55.1564 35.8618 55.1356L35.906 55.1304C36.2674 55.1304 36.5976 54.9926 36.8966 54.717C37.2216 54.4154 37.5154 53.95 37.7754 53.326L38.4696 51.7842L33.3164 40.04L34.229 39.5824L39.0806 50.6584L44.0908 39.6656L44.3898 39.8164Z" fill="#FEFEFE"/>
<path d="M22.7984 49.9433V56.1963H21.7324V39.7825H22.7984V42.1095C23.165 41.5063 23.594 41.0097 24.0906 40.6249C24.9096 39.9827 25.9002 39.6473 27.0546 39.6187H27.0832C28.7342 39.7357 30.0004 40.3467 30.8818 41.4491C31.745 42.5307 32.2208 44.0829 32.3066 46.0979V46.1161C32.278 48.1649 31.8386 49.7197 30.9858 50.7779C30.1148 51.8569 28.8382 52.4107 27.1508 52.4393H27.1404C25.9574 52.4107 24.9486 52.0753 24.114 51.4383C23.607 51.0483 23.1702 50.5517 22.7984 49.9433ZM27.1638 51.3759C28.495 51.3473 29.496 50.9105 30.1668 50.0629C30.8558 49.1919 31.2146 47.8763 31.2432 46.1213C31.1626 44.3845 30.7674 43.0663 30.0602 42.1615C29.3738 41.2827 28.3728 40.7887 27.0624 40.6821C25.7234 40.7913 24.7016 41.2827 23.9996 42.1641C23.282 43.0663 22.879 44.3793 22.7984 46.1083C22.9076 47.7801 23.3262 49.0541 24.0568 49.9303C24.777 50.7883 25.8118 51.2719 27.1638 51.3759Z" fill="#FEFEFE"/>
<path d="M4.71875 51.9531V35.4457C6.34635 35.4457 7.97135 35.4405 9.59895 35.4483C12.5317 35.4795 14.7495 36.1789 16.2471 37.5491C17.7525 38.9271 18.5195 40.9629 18.5455 43.6539V43.9373C18.5585 44.2935 18.5611 44.6393 18.5481 44.9773C18.4675 47.2965 17.7577 49.0697 16.4239 50.2943C15.0979 51.5111 13.1635 52.1715 10.6259 52.2755C10.1761 52.2937 9.70555 52.2937 9.21415 52.2755L4.71875 52.2781V51.9531ZM5.78475 36.5117V51.2095H9.22455C12.1157 51.3187 14.2425 50.7701 15.6101 49.5611C16.9647 48.3651 17.5887 46.4957 17.4821 43.9581V43.9451C17.4821 41.4543 16.8009 39.5927 15.4411 38.3655C14.0709 37.1279 11.9935 36.5117 9.21415 36.5117H5.78475Z" fill="#FEFEFE"/>
<path d="M47.6262 12.2277L47.6236 45.9497L58.8998 35.0817L59.6928 35.8747L52.6624 42.5671L60.2804 51.7711L59.425 52.4081L51.8616 43.2639L47.6236 47.3511V52.1247H46.5602C46.5602 39.2625 46.5576 26.3977 46.5602 13.5355L35.7052 28.7351H34.5508V11.9053H35.5284V27.0997L46.3834 11.9053H47.6262V12.2277Z" fill="#FFF212"/>
</svg>

<svg xmlns="http://www.w3.org/2000/svg" fill="none" viewBox="0 0 65 65"><path fill="#252323" fill-rule="evenodd" d="M0 0h65v65H0V0z" clip-rule="evenodd"/><path fill="#EC268F" d="M29.703 11.905h.741v16.83h-1.063v-16.83h.322z"/><path fill="#00AFEF" d="M8.943 28.41V11.905h1.285l6.877 15.216L23.9 11.905h1.285v16.83h-1.064V13.967L17.484 28.65h-.353l-.021.05-.023-.05h-.44l-6.64-14.682v14.768H8.943v-.325z"/><path fill="#FFF212" d="M36.982 9.526v-.73h8.214V9.85h-8.214v-.325z"/><path fill="#EC268F" d="M29.354 9.584v-.788h1.112v1.11h-1.113v-.322z"/><path fill="#FEFEFE" d="M44.39 39.816l.613.305-6.219 13.631c-.38.822-.803 1.436-1.269 1.841-.491.43-1.024.63-1.601.603a2.79 2.79 0 0 1-.97-.093 4.496 4.496 0 0 1-1.037-.45l-.263-.153.445-.887.283.133c.343.158.645.27.902.335.237.057.432.075.588.055l.044-.006c.361 0 .692-.137.99-.413.326-.302.62-.767.88-1.391l.694-1.542-5.154-11.744.913-.458 4.852 11.076 5.01-10.992.299.15zM22.798 49.943v6.253h-1.066V39.783h1.066v2.326c.367-.603.796-1.1 1.293-1.484.819-.642 1.81-.978 2.964-1.006h.028c1.651.117 2.917.728 3.799 1.83.863 1.082 1.339 2.634 1.425 4.649v.018c-.029 2.049-.468 3.604-1.321 4.662-.871 1.079-2.148 1.633-3.835 1.661h-.01c-1.184-.028-2.192-.364-3.027-1a5.42 5.42 0 0 1-1.316-1.496zm4.366 1.433c1.331-.029 2.332-.465 3.003-1.313.689-.871 1.048-2.187 1.076-3.942-.08-1.736-.476-3.055-1.183-3.96-.686-.878-1.687-1.372-2.998-1.479-1.339.11-2.36.6-3.062 1.482-.718.902-1.121 2.215-1.202 3.944.11 1.672.528 2.946 1.259 3.822.72.858 1.755 1.342 3.107 1.446zM4.719 51.953V35.446c1.627 0 3.252-.005 4.88.002 2.933.032 5.15.73 6.648 2.101 1.506 1.378 2.273 3.414 2.299 6.105v.283c.012.357.015.702.002 1.04-.08 2.32-.79 4.093-2.124 5.317-1.326 1.217-3.26 1.878-5.798 1.982-.45.018-.92.018-1.412 0l-4.495.002v-.325zm1.066-15.441v14.697h3.44c2.89.11 5.018-.439 6.385-1.648 1.355-1.196 1.979-3.065 1.872-5.603v-.013c0-2.49-.681-4.352-2.04-5.58-1.371-1.237-3.449-1.853-6.228-1.853h-3.43z"/><path fill="#FFF212" d="M47.626 12.228l-.002 33.722L58.9 35.082l.793.793-7.03 6.692 7.617 9.204-.855.637-7.563-9.144-4.238 4.087v4.774H46.56c0-12.862-.002-25.727 0-38.59l-10.855 15.2h-1.154v-16.83h.977V27.1l10.855-15.195h1.243v.323z"/></svg>
